X:48
T:God Save the Queen Secondo. WHG.047
R:air
S:W.H.Giles MS,Bampton,Oxfordshire,1839p49
O:England
H:donated by Mrs W.R.Kettlewell to VWML,Apr 1927.
A:Bampton, Oxfordshire
N:Both sections end with minims in the MS.
Z:PJHeadford – VMP 2009
M:3/4
L:1/8
Q:1/4=140
K:C
E2E2E2|G3AB2|c2c2A2|G2F2E2|\
A2G2F2|E6||e2e2e2|e3dc2|
d2d2d2|d3cB2|c2dc BA|G2cde2|\
((3fed)c2G2|E6|]

